symbols/web/photo_camera_back/materialsymbolsrounded/photo_camera_back_wght600grad200fill1_48px.svg

<svg xmlns="http://www.w3.org/2000/svg" height="48" width="48"><path d="M14.1 35.05h20.1q.6 0 .925-.6.325-.6-.025-1.1L29.45 26q-.35-.4-.875-.4t-.825.4l-5.5 7.25-3.75-4.65q-.35-.4-.875-.4t-.825.45l-3.5 4.7q-.5.5-.175 1.1.325.6.975.6Zm-6.9 7.9q-1.65 0-2.9-1.225T3.05 38.8V13.6q0-1.6 1.25-2.875T7.2 9.45h6.95l2.75-3.3q.55-.7 1.375-1.075T20.05 4.7h8q.85 0 1.675.375.825.375 1.425 1.075l2.75 3.3h6.9q1.65 0 2.9 1.275t1.25 2.875v25.2q0 1.7-1.25 2.925-1.25 1.225-2.9 1.225Z"/></svg>

<svg xmlns="http://www.w3.org/2000/svg" height="48" width="48"><path d="M14.1 35.05H34.2Q34.8 35.05 35.125 34.45Q35.45 33.85 35.1 33.35L29.45 26Q29.1 25.6 28.575 25.6Q28.05 25.6 27.75 26L22.25 33.25L18.5 28.6Q18.15 28.2 17.625 28.2Q17.1 28.2 16.8 28.65L13.3 33.35Q12.8 33.85 13.125 34.45Q13.45 35.05 14.1 35.05ZM7.2 42.95Q5.55 42.95 4.3 41.725Q3.05 40.5 3.05 38.8V13.6Q3.05 12 4.3 10.725Q5.55 9.45 7.2 9.45H14.15L16.9 6.15Q17.45 5.45 18.275 5.075Q19.1 4.7 20.05 4.7H28.05Q28.9 4.7 29.725 5.075Q30.55 5.45 31.15 6.15L33.9 9.45H40.8Q42.45 9.45 43.7 10.725Q44.95 12 44.95 13.6V38.8Q44.95 40.5 43.7 41.725Q42.45 42.95 40.8 42.95Z"/></svg>
